img/logo-full-color.svg

<?xml version="1.0" encoding="UTF-8"?>
<svg width="54px" height="30px" viewBox="0 0 54 30" version="1.1" xmlns="http://www.w3.org/2000/svg" xmlns:xlink="http://www.w3.org/1999/xlink">
    <!-- Generator: Sketch 46.2 (44496) - http://www.bohemiancoding.com/sketch -->
    <title>logo/logo-full-color</title>
    <desc>Created with Sketch.</desc>
    <defs></defs>
    <g id="Symbols" stroke="none" stroke-width="1" fill="none" fill-rule="evenodd">
        <g id="logo/logo-full-color">
            <g id="logo/full-color" transform="translate(0.006329, 0.000000)">
                <path d="M45.7804007,8.87861272 C40.3200348,6.60693642 35.7263937,7.64739884 31.9474739,9.84971098 C33.6635889,13.283237 34.1489547,17.2543353 36.0557491,19.8554913 C38.6212544,23.3410405 43.3709059,26.2023121 47.0284843,26.150289 C50.0100174,26.1156069 51.6394599,24.1734104 51.9688153,23.6358382 C51.9861498,23.6184971 51.9861498,23.6011561 52.0034843,23.583815 C52.0034843,23.583815 52.0034843,23.583815 52.0034843,23.566474 C52.3155052,23.0115607 52.5408537,22.4219653 52.6621951,21.7630058 C53.5462544,17.2890173 51.0847561,11.0809249 45.7804007,8.87861272 Z" id="Shape" fill="#FFDB18"></path>
                <path d="M11.2674216,25.2312139 C15.8957317,24.6936416 19.3279617,23.132948 25.1870209,16.6647399 C27.1804878,14.4797688 28.9312718,11.6184971 31.9474739,9.84971098 C30.0233449,6 27.3364983,2.42774566 21.8414634,0.971098266 C14.8729965,-0.867052023 9.93266551,0.138728324 5.16567944,4.40462428 C1.83745645,7.38728324 0.641376307,10.8554913 0.329355401,12.2080925 C-0.537369338,15.9884393 0.901393728,19.4913295 2.20148084,21.7283237 C2.40949477,22.0751445 5.06167247,25.9595376 11.2674216,25.2312139 Z" id="Shape" fill="#1EC4E9"></path>
                <path d="M37.2344948,29.566474 C37.3038328,29.566474 37.3731707,29.5491329 37.4598432,29.5491329 C37.5811847,29.5317919 37.6851916,29.5317919 37.7891986,29.5144509 C39.904007,29.3236994 41.9321429,29.0462428 43.7349303,28.6300578 C43.8216028,28.6127168 43.9082753,28.5953757 43.9949477,28.5780347 C44.0469512,28.5606936 44.0816202,28.5606936 44.1336237,28.5433526 C46.1964286,28.0404624 47.8605401,27.3468208 49.1952962,26.4624277 C49.2126307,26.4450867 49.2472997,26.4277457 49.2646341,26.4104046 C49.3166376,26.3757225 49.3513066,26.3410405 49.4033101,26.3063584 C49.4379791,26.2890173 49.4553136,26.2716763 49.4899826,26.2543353 C49.5593206,26.2023121 49.611324,26.1676301 49.680662,26.1156069 C49.680662,26.1156069 49.680662,26.1156069 49.680662,26.1156069 C50.4260453,25.5606936 51.0500871,24.9364162 51.5181185,24.3121387 C51.535453,24.2947977 51.5527875,24.2774566 51.570122,24.2427746 C51.5874564,24.2254335 51.5874564,24.2080925 51.6047909,24.1907514 C51.7434669,24 51.8648084,23.8092486 51.9861498,23.6011561 C51.6567944,24.1387283 50.3047038,25.6647399 47.3231707,25.699422 C43.6655923,25.7514451 39.2452962,23.0115607 36.6797909,19.5086705 C34.7729965,16.9075145 33.6809233,13.2485549 31.9648084,9.8150289 C28.9659408,11.583815 26.4697735,14.0809249 24.4763066,16.283237 C18.6172474,22.734104 15.5837108,24.2080925 10.9554007,24.7456647 C4.74965157,25.4739884 2.40949477,22.0404624 2.20148084,21.7109827 C2.20148084,21.7283237 2.21881533,21.7283237 2.21881533,21.7456647 C2.39216028,22.0404624 3.3108885,23.4797688 4.74965157,24.849711 C5.42569686,25.4739884 6.11907666,25.9942197 6.74311847,26.4104046 C9.53397213,28.1098266 13.3995645,29.7745665 27.3364983,29.8439306 C31.1154181,29.8786127 34.3916376,29.7919075 37.2344948,29.566474 Z" id="Shape" fill="#00BC98"></path>
            </g>
        </g>
    </g>
</svg>

<svg width="54" height="30" viewBox="0 0 54 30" xmlns="http://www.w3.org/2000/svg"><g fill="none" fill-rule="evenodd"><path d="M45.787 8.879c-5.46-2.272-10.054-1.232-13.833.97 1.716 3.434 2.201 7.405 4.108 10.006 2.566 3.486 7.315 6.347 10.973 6.295 2.981-.034 4.61-1.977 4.94-2.514.017-.018.017-.035.035-.052v-.018a5.76 5.76 0 0 0 .659-1.803c.884-4.474-1.578-10.682-6.882-12.884z" fill="#FFDB18"/><path d="M11.274 25.231c4.628-.537 8.06-2.098 13.92-8.566 1.993-2.185 3.744-5.047 6.76-6.815C30.03 6 27.343 2.428 21.848.97 14.879-.867 9.939.14 5.172 4.405 1.844 7.387.648 10.855.336 12.208c-.867 3.78.572 7.283 1.872 9.52.208.347 2.86 4.232 9.066 3.503z" fill="#1EC4E9"/><path d="M37.24 29.566c.07 0 .14-.017.226-.017.122-.017.226-.017.33-.035 2.114-.19 4.142-.468 5.945-.884l.26-.052c.052-.017.087-.017.139-.035 2.063-.503 3.727-1.196 5.062-2.08.017-.018.052-.035.069-.053.052-.034.087-.069.139-.104.034-.017.052-.034.086-.052.07-.052.122-.086.191-.138a9.092 9.092 0 0 0 1.837-1.804.24.24 0 0 0 .052-.07c.018-.017.018-.034.035-.051.139-.191.26-.382.381-.59-.329.538-1.681 2.064-4.663 2.098-3.657.052-8.077-2.687-10.643-6.19-1.907-2.601-2.999-6.26-4.715-9.694-2.999 1.769-5.495 4.266-7.488 6.468-5.86 6.451-8.893 7.925-13.521 8.463-6.206.728-8.546-2.706-8.754-3.035 0 .017.017.017.017.035.173.294 1.092 1.734 2.531 3.104.676.624 1.37 1.144 1.993 1.56 2.791 1.7 6.657 3.365 20.594 3.434 3.779.035 7.055-.052 9.898-.278z" fill="#00BC98"/></g></svg>
